build/redact/BorderRightOutline.svg

<svg xmlns="http://www.w3.org/2000/svg" fill="none" viewBox="0 0 24 24" focusable="false"><path d="M0 0H24V24H0z" transform="matrix(1 0 0 -1 0 24)"/><path fill="#74767B" fill-rule="evenodd" d="M7.09645 5.36541C7.27331 5.32276 7.45856 5.3 7.65 5.3L8.30752 5.3C8.6665 5.3 8.95752 5.00898 8.95752 4.65C8.95752 4.29101 8.6665 4 8.30752 4L7.65 4C7.35511 4 7.06756 4.0351 6.79163 4.10166C6.49387 4.17347 6.29389 4.43965 6.29389 4.733C6.29389 4.78346 6.29981 4.83473 6.31216 4.88594C6.39633 5.23492 6.74747 5.44959 7.09645 5.36541ZM11.3422 4C10.9832 4 10.6922 4.29101 10.6922 4.65C10.6922 5.00898 10.9832 5.3 11.3422 5.3L12.6572 5.3C13.0162 5.3 13.3072 5.00898 13.3072 4.65C13.3072 4.29101 13.0162 4 12.6572 4L11.3422 4ZM16.6247 18.6794C16.5346 18.6899 16.4427 18.6953 16.3494 18.6953L15.6919 18.6953C15.3329 18.6953 15.0419 18.9863 15.0419 19.3453C15.0419 19.7043 15.3329 19.9953 15.6919 19.9953L15.982 19.9953L15.9935 19.9954L16.3491 19.9954C18.0644 19.9954 19.5033 18.8123 19.8943 17.2176L19.8978 17.2037C19.9643 16.9278 19.9994 16.6402 19.9994 16.3453L19.9994 15.6881L19.9994 15.6802L19.9991 15.6678L19.9991 12.6752Q19.9994 12.665 19.9994 12.6549L19.9994 11.3405C19.9994 11.3337 19.9993 11.3269 19.9991 11.3201L19.9991 8.32753C19.9993 8.32078 19.9994 8.314 19.9994 8.3072L19.9994 7.65C19.9994 7.35511 19.9643 7.06756 19.8978 6.79163C19.8927 6.77074 19.8867 6.75033 19.8798 6.73043C19.5506 5.47562 18.5701 4.48459 17.3214 4.14035C17.2855 4.12426 17.2475 4.11123 17.2078 4.10166C16.9319 4.0351 16.6443 4 16.3494 4L15.6919 4C15.3329 4 15.0419 4.29101 15.0419 4.65C15.0419 5.00898 15.3329 5.3 15.6919 5.3L15.8826 5.3C15.9186 5.30619 15.9557 5.30941 15.9935 5.30941L16.3491 5.30941C17.647 5.30941 18.6991 6.36154 18.6991 7.65941L18.6991 16.3454C18.6991 17.5501 17.7927 18.543 16.6247 18.6794ZM5.36542 7.09645C5.37777 7.04523 5.38368 6.99397 5.38368 6.94351C5.38368 6.65015 5.1837 6.38398 4.88594 6.31216C4.53697 6.22799 4.18583 6.44265 4.10166 6.79163C4.0351 7.06756 4 7.35511 4 7.65L4 8.3072C4 8.66619 4.29101 8.9572 4.65 8.9572C5.00899 8.9572 5.3 8.66619 5.3 8.3072L5.3 7.65C5.3 7.45856 5.32276 7.27331 5.36542 7.09645ZM11.9942 9.57148C12.3532 9.57148 12.6442 9.28047 12.6442 8.92148L12.6442 7.72637C12.6442 7.36738 12.3532 7.07637 11.9942 7.07637C11.6353 7.07637 11.3442 7.36738 11.3442 7.72637L11.3442 8.92148C11.3442 9.28047 11.6353 9.57148 11.9942 9.57148ZM5.3 11.3405C5.3 10.9815 5.00899 10.6905 4.65 10.6905C4.29101 10.6905 4 10.9815 4 11.3405L4 12.6549C4 13.0138 4.29101 13.3049 4.65 13.3049C5.00899 13.3049 5.3 13.0138 5.3 12.6549L5.3 11.3405ZM7.7208 11.3477C7.36182 11.3477 7.0708 11.6387 7.0708 11.9977C7.0708 12.3567 7.36182 12.6477 7.7208 12.6477L8.91701 12.6477C9.276 12.6477 9.56701 12.3567 9.56701 11.9977C9.56701 11.6387 9.276 11.3477 8.91701 11.3477L7.7208 11.3477ZM15.0719 11.3478C14.7129 11.3478 14.4219 11.6389 14.4219 11.9978C14.4219 12.3568 14.7129 12.6478 15.0719 12.6478L16.2681 12.6478C16.6271 12.6478 16.9181 12.3568 16.9181 11.9978C16.9181 11.6389 16.6271 11.3478 16.2681 11.3478L15.0719 11.3478ZM11.9942 16.9172C12.3532 16.9172 12.6442 16.6262 12.6442 16.2672L12.6442 15.0721C12.6442 14.7131 12.3532 14.4221 11.9942 14.4221C11.6353 14.4221 11.3442 14.7131 11.3442 15.0721L11.3442 16.2672C11.3442 16.6262 11.6353 16.9172 11.9942 16.9172ZM5.3 15.6881C5.3 15.3291 5.00899 15.0381 4.65 15.0381C4.29101 15.0381 4 15.3291 4 15.6881L4 16.3453C4 16.6402 4.0351 16.9278 4.10166 17.2037C4.18583 17.5527 4.53696 17.7673 4.88594 17.6832C5.1837 17.6113 5.38368 17.3452 5.38368 17.0518C5.38368 17.0013 5.37777 16.9501 5.36541 16.8989C5.32276 16.722 5.3 16.5367 5.3 16.3453L5.3 15.6881ZM7.09645 18.6299C6.74747 18.5457 6.39633 18.7604 6.31216 19.1094C6.29981 19.1606 6.29389 19.2118 6.29389 19.2623C6.29389 19.5557 6.49387 19.8218 6.79163 19.8937C7.06756 19.9602 7.35511 19.9953 7.65 19.9953L8.30752 19.9953C8.6665 19.9953 8.95752 19.7043 8.95752 19.3453C8.95752 18.9863 8.6665 18.6953 8.30752 18.6953L7.65 18.6953C7.45856 18.6953 7.27331 18.6726 7.09645 18.6299ZM11.3422 18.6953C10.9832 18.6953 10.6922 18.9863 10.6922 19.3453C10.6922 19.7043 10.9832 19.9953 11.3422 19.9953L12.6572 19.9953C13.0162 19.9953 13.3072 19.7043 13.3072 19.3453C13.3072 18.9863 13.0162 18.6953 12.6572 18.6953L11.3422 18.6953Z"/></svg>

<svg xmlns="http://www.w3.org/2000/svg" fill="none" viewBox="0 0 24 24" focusable="false"><path fill="#74767B" fill-rule="evenodd" d="M7.09 5.36c.18-.04.36-.06.55-.06h.66c.36 0 .65-.3.65-.65 0-.36-.29-.65-.65-.65h-.66c-.29 0-.58.03-.85.1a.64.64 0 0 0-.48.78c.08.35.43.56.78.48M11.34 4c-.36 0-.65.29-.65.65 0 .35.29.65.65.65h1.31c.36 0 .65-.3.65-.65 0-.36-.29-.65-.65-.65zm5.28 14.67c-.09.01-.18.02-.28.02h-.65c-.36 0-.65.29-.65.65s.29.65.65.65h.65c1.72 0 3.16-1.18 3.55-2.78v-.01c.07-.28.1-.56.1-.86V7.65c0-.3-.03-.59-.1-.86 0-.02-.01-.04-.02-.06a3.61 3.61 0 0 0-2.55-2.59c-.04-.02-.08-.03-.12-.04-.27-.07-.56-.1-.86-.1h-.65c-.36 0-.65.29-.65.65 0 .35.29.65.65.65h.65c1.3 0 2.35 1.06 2.35 2.35v8.69c0 1.21-.9 2.2-2.07 2.33M5.36 7.09c.01-.05.02-.1.02-.15 0-.29-.2-.56-.5-.63-.35-.09-.7.13-.78.48-.07.27-.1.56-.1.86v.65c0 .36.29.65.64.65.36 0 .65-.29.65-.65v-.65c0-.2.03-.38.07-.56m6.63 2.48c.36 0 .65-.29.65-.65v-1.2c0-.36-.29-.65-.65-.65s-.65.29-.65.65v1.2c0 .36.29.65.65.65m-6.7 1.77c0-.36-.29-.65-.65-.65-.35 0-.64.29-.64.65v1.31c0 .36.29.65.64.65.36 0 .65-.29.65-.65zm2.43 0c-.36 0-.65.29-.65.65s.29.65.65.65h1.19c.36 0 .65-.29.65-.65s-.29-.65-.65-.65zm7.35 0c-.36 0-.65.29-.65.65s.29.65.65.65h1.19c.36 0 .65-.29.65-.65s-.29-.65-.65-.65zm-3.08 5.57c.36 0 .65-.29.65-.65v-1.19c0-.36-.29-.65-.65-.65s-.65.29-.65.65v1.19c0 .36.29.65.65.65m-6.7-1.23c0-.36-.29-.65-.65-.65-.35 0-.64.29-.64.65v.66c0 .3.03.58.1.86a.65.65 0 0 0 1.28-.15c0-.05-.01-.1-.02-.16-.04-.17-.07-.36-.07-.55zm1.8 2.94c-.35-.08-.7.14-.78.48-.02.06-.02.11-.02.16 0 .29.2.56.5.63.27.07.56.1.85.1h.66c.36 0 .65-.29.65-.65s-.29-.65-.65-.65h-.66c-.19 0-.37-.02-.55-.07m4.25.07c-.36 0-.65.29-.65.65s.29.65.65.65h1.31c.36 0 .65-.29.65-.65s-.29-.65-.65-.65z"/></svg>
